X:1
T:Title
%%score 1 2
L:1/8
Q:1/4=107
M:4/4
K:F
V:1 treble nm="Grand Piano, Soprano"
V:2 bass nm="Choir Pad, Bass"
V:1
 [Fc]2 [Fc]2 [Fc]3 [FA] | [CF]2 D2 [CF]2 z2 | [Fc]2 [Fc]2 [Fc]3 [FA] | [EG]2 [EG]2 [EG]2 z2 | %4
w: By~Charles~Crozat~Converse,~1870 * * *||||
 [Fc]2 [Fc]2 [Fc]3 [FA] | [CF]2 D2 [CF]2 F>[FG] | [FA]4 [EG]3 [CF] | [CF]8 |] %8
w: ||||
V:2
 [F,A,]2 [F,A,]2 [F,A,]3 [F,C] | [F,A,]2 [F,B,]2 [F,A,]2 z2 | [F,A,]2 [F,A,]2 [F,A,]3 [F,C] | %3
 [C,C]2 [C,C]2 [C,C]2 z2 | [F,A,]2 [F,A,]2 [F,A,]3 [F,C] | [F,A,]2 [F,B,]2 [F,A,]2 [F,A,]>[F,B,] | %6
 [F,C]4 [C,B,]3 [F,A,] | [F,A,]8 |] %8

